assets/features/channel/southeast-asia/vietinbank.svg

<svg width="80" height="80" viewBox="0 0 80 80" fill="none" xmlns="http://www.w3.org/2000/svg">
<rect x="0.5" y="0.5" width="79" height="79" rx="7.5" fill="white"/>
<rect x="0.5" y="0.5" width="79" height="79" rx="7.5" stroke="#EEEEEE"/>
<path d="M40.0109 34.1552C38.6686 34.1552 37.2911 34.1552 35.9489 34.1552C33.8296 34.1552 34.1828 33.9433 34.1828 35.886C34.1828 38.4291 34.1828 40.9723 34.1828 43.5154C34.1828 44.2219 34.0415 44.6104 33.2644 44.7164C29.6263 45.1756 26.2001 46.4471 22.9505 48.0366C21.9615 48.5311 21.7496 48.2132 21.3964 47.2949C19.595 42.5971 19.5244 37.864 21.2551 33.1662C23.3391 27.5501 27.2245 23.6294 32.7346 21.3688C40.576 18.1899 50.1835 20.6977 55.4464 27.3382C60.2501 33.3782 61.1331 40.0539 58.6606 47.2595C58.3074 48.2839 57.9189 48.4251 56.9652 47.966C53.7156 46.4118 50.3601 45.1402 46.7573 44.6811C45.9802 44.5751 45.8742 44.1512 45.8742 43.4801C45.9096 40.725 45.8742 37.97 45.9096 35.2149C45.9096 34.4025 45.6976 34.0846 44.8499 34.1199C43.2251 34.1906 41.6356 34.1199 40.0109 34.1199V34.1552Z" fill="#005992"/>
<path d="M39.9049 60.0105C33.2291 59.7633 27.8602 57.0435 23.7983 51.71C23.4097 51.1802 23.3037 50.8976 24.0455 50.5444C30.7919 47.1888 37.8562 46.0938 45.2738 47.1888C48.9472 47.7186 52.444 48.7783 55.7643 50.4384C56.5767 50.8623 56.6826 51.1448 56.1175 51.9219C51.9849 57.1848 46.5807 59.8339 39.9049 60.0459V60.0105Z" fill="#D61549"/>
</svg>

<svg xmlns="http://www.w3.org/2000/svg" width="80" height="80" fill="none" viewBox="0 0 80 80"><rect width="79" height="79" x=".5" y=".5" fill="#fff" rx="7.5"/><rect width="79" height="79" x=".5" y=".5" stroke="#eee" rx="7.5"/><path fill="#005992" d="M40.01 34.155h-4.06c-2.12 0-1.766-.212-1.766 1.731v7.63c0 .706-.142 1.094-.919 1.2-3.638.46-7.064 1.731-10.314 3.32-.988.495-1.2.177-1.554-.741-1.801-4.698-1.872-9.431-.14-14.129 2.083-5.616 5.968-9.537 11.479-11.797 7.841-3.18 17.449-.671 22.711 5.97 4.804 6.04 5.687 12.715 3.215 19.92-.354 1.025-.742 1.166-1.696.707-3.25-1.554-6.605-2.826-10.208-3.285-.777-.106-.883-.53-.883-1.2.036-2.756 0-5.511.036-8.266 0-.812-.212-1.13-1.06-1.095-1.625.07-3.214 0-4.84 0z"/><path fill="#d61549" d="M39.905 60.01c-6.676-.247-12.045-2.966-16.107-8.3-.388-.53-.494-.812.248-1.166 6.746-3.355 13.81-4.45 21.228-3.355 3.673.53 7.17 1.59 10.49 3.25.813.423.919.706.353 1.483-4.132 5.263-9.536 7.912-16.212 8.124z"/></svg>
